X:6502
T:Flocks in a Cluster
R:Jig
C:Trad.
O:England, Shropshire
Z:Paul Hardy's Possible Tunebook 2015 (see www.paulhardy.net). Creative Commons cc by-nc-sa licenced.
M:6/8
L:1/8
Q:3/8=110
K:G
D|"G"G>AG BGd|gag g2 d|BGB dcB|B3"D"A2 B|
"C"cec "G"BdB|GBd g2 f/g/|"D"afd "A7"ge^c|"D"d3-d2:|
|:f/g/|"D"afd "G"dAB|"C"cdc "Am"cBA|"G"GBd dcB|B3 "D"A2 B|"C"c>ec "G"B>dB|
"G"GBd g2d|BGB dGg|"C"e3 "G"d2e|"D"d>cB "D7"c>BA|"G"G3 G2:|

